svg/fr/j.svg

<svg xmlns="http://www.w3.org/2000/svg" version="1" width="361.289" height="215.71"><path fill="#009" d="M0 0h361.289v215.71H0z"/><path d="M180.648 203.535c1.306-1.418 3.611-4.2 4.548-7.149 1.048-3.291.579-7.963.327-9.854 5.285 2.294 9.029 2.561 13.103.924 0 0 1.046-.422 1.049-.419l-1.758-.756c-2.82-1.192-7.485-3.185-9.582-10.555h7.708v-5.234h-3.395c.376-10.385 6.267-16.188 10.466-16.383 2.072-.097 3.409 1.149 3.667 3.419.371 3.438-1.587 7.933-1.607 7.979l-.452 1.02 1.047-.394c5.441-2.059 10.1-5.568 13.477-10.146 5.65-7.663 3.77-15.86-1.01-19.998-4.518-3.908-12.297-4.668-19.5 2.447-8.446 8.348-12.418 24.929-12.695 32.051h-1.139c-.042-8.529-.015-13.812 4.318-24.954 7.255-18.646 4.346-34.687-8.572-47.714-12.925 13.028-15.83 29.068-8.577 47.717 4.331 11.14 4.358 16.422 4.317 24.951h-1.14c-.274-7.122-4.249-23.703-12.695-32.051-7.201-7.112-14.983-6.355-19.5-2.443-4.78 4.139-6.661 12.333-1.009 19.996 3.377 4.575 8.036 8.087 13.474 10.146l1.047.396-.451-1.024c-.021-.044-1.979-4.539-1.607-7.979.26-2.268 1.595-3.516 3.666-3.419 4.202.198 10.092 5.998 10.468 16.383h-3.394v5.236h7.707c-2.097 7.371-6.763 9.36-9.583 10.553l-1.759.756c.005-.003 1.052.419 1.052.419 4.072 1.637 7.817 1.37 13.104-.921-.256 1.888-.724 6.562.326 9.851.937 2.948 3.243 5.731 4.554 7.149z"/><path fill="gold" d="M166.185 171.429h28.918v3.357h-28.918zM169.579 170.492h4.73c-.276-7.002-4.164-23.233-12.414-31.389-7.242-7.152-14.346-5.764-18.228-2.399-4.454 3.852-6.183 11.524-.87 18.731 3.058 4.143 7.21 7.366 12.042 9.401-.585-1.598-1.552-4.731-1.262-7.409.311-2.743 2.088-4.373 4.641-4.253 4.401.205 10.97 5.86 11.361 17.318zM183.965 170.492c-.043-8.637-.016-13.993 4.38-25.299 6.974-17.933 4.354-33.391-7.697-46.008-12.057 12.617-14.679 28.077-7.705 46.008 4.398 11.306 4.425 16.657 4.382 25.299h6.64zM191.712 170.492h-4.731c.276-7.002 4.165-23.233 12.416-31.389 7.242-7.152 14.343-5.764 18.227-2.399 4.454 3.852 6.183 11.524.868 18.731-3.055 4.143-7.21 7.366-12.043 9.401.586-1.598 1.555-4.731 1.266-7.409-.313-2.743-2.091-4.373-4.644-4.253-4.397.205-10.969 5.86-11.359 17.318zM187.358 175.726c2.085 7.67 6.751 9.949 9.79 11.248-3.612 1.143-7.011.668-12.019-1.626l-.807-.37.15.877c.01.062 1.07 6.347-.17 10.247-.729 2.293-2.396 4.534-3.656 6.01-1.264-1.476-2.932-3.717-3.661-6.01-1.241-3.9-.18-10.185-.171-10.247l.154-.877-.811.37c-5.006 2.294-8.405 2.766-12.018 1.626 3.038-1.299 7.706-3.578 9.792-11.248h13.427z"/><g><path d="M86.388 131.446c1.307-1.418 3.611-4.199 4.549-7.148 1.048-3.291.579-7.963.327-9.854 5.285 2.293 9.029 2.561 13.103.924 0 0 1.046-.422 1.049-.42l-1.758-.756c-2.82-1.191-7.485-3.184-9.582-10.554h7.708v-5.234h-3.395c.376-10.385 6.267-16.188 10.466-16.383 2.072-.097 3.409 1.149 3.667 3.419.371 3.438-1.587 7.933-1.607 7.979l-.452 1.02 1.047-.394c5.441-2.059 10.1-5.568 13.477-10.146 5.65-7.663 3.77-15.86-1.01-19.998-4.518-3.908-12.297-4.668-19.5 2.447-8.446 8.348-12.418 24.929-12.695 32.051h-1.139c-.043-8.529-.016-13.811 4.317-24.954 7.255-18.646 4.346-34.687-8.572-47.714-12.924 13.028-15.829 29.068-8.576 47.717 4.33 11.14 4.357 16.422 4.316 24.951H80.99c-.275-7.122-4.249-23.703-12.695-32.051-7.201-7.112-14.982-6.355-19.5-2.443-4.78 4.139-6.661 12.333-1.009 19.996 3.377 4.575 8.036 8.087 13.474 10.146l1.048.396-.451-1.024c-.021-.044-1.979-4.539-1.607-7.979.26-2.268 1.594-3.516 3.666-3.419 4.201.198 10.092 5.998 10.467 16.383h-3.394v5.236h7.707c-2.097 7.371-6.763 9.361-9.583 10.552l-1.76.756c.006-.002 1.053.42 1.053.42 4.072 1.637 7.816 1.369 13.104-.922-.256 1.889-.723 6.562.326 9.852.935 2.949 3.242 5.73 4.552 7.148z"/><path fill="gold" d="M71.925 99.341h28.919v3.357H71.925zM75.32 98.403h4.73c-.277-7.002-4.164-23.233-12.414-31.389-7.242-7.152-14.346-5.764-18.228-2.399-4.454 3.852-6.183 11.524-.87 18.731 3.058 4.143 7.21 7.366 12.042 9.401-.586-1.598-1.553-4.731-1.263-7.409.312-2.743 2.089-4.373 4.642-4.253 4.4.206 10.97 5.86 11.361 17.318zM89.706 98.403c-.043-8.637-.016-13.993 4.38-25.299 6.974-17.933 4.354-33.391-7.697-46.008-12.057 12.617-14.679 28.077-7.704 46.008 4.397 11.306 4.425 16.657 4.382 25.299h6.639zM97.453 98.403h-4.731c.276-7.002 4.165-23.233 12.416-31.389 7.242-7.152 14.343-5.764 18.227-2.399 4.454 3.852 6.183 11.524.868 18.731-3.055 4.143-7.21 7.366-12.043 9.401.586-1.598 1.555-4.731 1.266-7.409-.313-2.743-2.091-4.373-4.644-4.253-4.397.206-10.97 5.86-11.359 17.318zM93.099 103.638c2.085 7.669 6.751 9.949 9.79 11.248-3.612 1.143-7.011.668-12.019-1.625l-.807-.371.15.877c.01.062 1.07 6.348-.17 10.248-.729 2.293-2.396 4.533-3.656 6.01-1.264-1.477-2.932-3.717-3.66-6.01-1.242-3.9-.18-10.186-.172-10.248l.154-.877-.809.37c-5.006 2.293-8.404 2.766-12.018 1.625 3.038-1.299 7.705-3.578 9.792-11.248h13.425v.001z"/></g><g><path d="M274.907 131.446c1.307-1.418 3.611-4.199 4.549-7.148 1.048-3.291.579-7.963.327-9.854 5.285 2.293 9.029 2.561 13.103.924 0 0 1.046-.422 1.049-.42l-1.758-.756c-2.82-1.191-7.485-3.184-9.582-10.554h7.708v-5.234h-3.395c.376-10.385 6.267-16.188 10.466-16.383 2.072-.097 3.409 1.149 3.667 3.419.371 3.438-1.587 7.933-1.607 7.979l-.452 1.02 1.047-.394c5.441-2.059 10.1-5.568 13.477-10.146 5.65-7.663 3.77-15.86-1.01-19.998-4.518-3.908-12.297-4.668-19.5 2.447-8.446 8.348-12.418 24.929-12.695 32.051h-1.139c-.042-8.529-.015-13.812 4.318-24.954 7.255-18.646 4.346-34.687-8.572-47.714-12.924 13.028-15.829 29.068-8.576 47.717 4.33 11.14 4.357 16.422 4.316 24.951h-1.139c-.275-7.122-4.249-23.703-12.695-32.051-7.201-7.112-14.982-6.355-19.5-2.443-4.779 4.139-6.66 12.333-1.009 19.996 3.378 4.575 8.036 8.087 13.475 10.146l1.048.396-.451-1.024c-.021-.044-1.979-4.539-1.607-7.979.26-2.268 1.594-3.516 3.666-3.419 4.201.198 10.092 5.998 10.467 16.383h-3.394v5.236h7.707c-2.097 7.371-6.763 9.361-9.583 10.552l-1.76.756c.006-.002 1.053.42 1.053.42 4.072 1.637 7.816 1.369 13.104-.922-.256 1.889-.723 6.562.326 9.852.934 2.949 3.241 5.73 4.551 7.148z"/><path fill="gold" d="M260.444 99.341h28.919v3.357h-28.919zM263.839 98.403h4.73c-.277-7.002-4.164-23.233-12.414-31.389-7.242-7.152-14.346-5.764-18.228-2.399-4.454 3.852-6.183 11.524-.87 18.731 3.059 4.143 7.211 7.366 12.043 9.401-.586-1.598-1.553-4.731-1.263-7.409.312-2.743 2.089-4.373 4.642-4.253 4.399.206 10.969 5.86 11.36 17.318zM278.225 98.403c-.043-8.637-.016-13.993 4.38-25.299 6.974-17.933 4.354-33.391-7.697-46.008-12.057 12.617-14.679 28.077-7.704 46.008 4.397 11.306 4.425 16.657 4.382 25.299h6.639zM285.972 98.403h-4.731c.276-7.002 4.165-23.233 12.416-31.389 7.242-7.152 14.343-5.764 18.227-2.399 4.454 3.852 6.183 11.524.868 18.731-3.055 4.143-7.21 7.366-12.043 9.401.586-1.598 1.555-4.731 1.266-7.409-.313-2.743-2.091-4.373-4.644-4.253-4.397.206-10.97 5.86-11.359 17.318zM281.618 103.638c2.085 7.669 6.751 9.949 9.79 11.248-3.612 1.143-7.011.668-12.019-1.625l-.807-.371.15.877c.01.062 1.07 6.348-.17 10.248-.729 2.293-2.396 4.533-3.656 6.01-1.264-1.477-2.932-3.717-3.66-6.01-1.242-3.9-.18-10.186-.172-10.248l.154-.877-.811.371c-5.006 2.293-8.404 2.766-12.018 1.625 3.038-1.299 7.705-3.578 9.792-11.248h13.427z"/></g></svg>

<?xml version="1.0" encoding="UTF-8" standalone="no"?>
<!-- Created with Inkscape (http://www.inkscape.org/) -->
<svg
   xmlns:svg="http://www.w3.org/2000/svg"
   xmlns="http://www.w3.org/2000/svg"
   version="1.0"
   width="361.289"
   height="215.71001"
   viewBox="0 0 361.289 215.71"
   id="svg18588"
   xml:space="preserve"><defs
   id="defs18616" />
	
		<g
   id="flag">
			<rect
   width="361.289"
   height="215.71001"
   x="0"
   y="0"
   style="fill:#009"
   id="blue" /> 
			<g
   id="_x33_">
				<path
   d="M 180.648,203.535 C 181.954,202.117 184.259,199.335 185.196,196.386 C 186.244,193.095 185.775,188.423 185.523,186.532 C 190.808,188.826 194.552,189.093 198.626,187.456 C 198.626,187.456 199.672,187.034 199.675,187.037 L 197.917,186.281 C 195.097,185.089 190.432,183.096 188.335,175.726 L 196.043,175.726 L 196.043,170.492 L 192.648,170.492 C 193.024,160.107 198.915,154.304 203.114,154.109 C 205.186,154.012 206.523,155.258 206.781,157.528 C 207.152,160.966 205.194,165.461 205.174,165.507 L 204.722,166.527 L 205.769,166.133 C 211.21,164.074 215.869,160.565 219.246,155.987 C 224.896,148.324 223.016,140.127 218.236,135.989 C 213.718,132.081 205.939,131.321 198.736,138.436 C 190.29,146.784 186.318,163.365 186.041,170.487 L 184.902,170.487 C 184.86,161.958 184.887,156.675 189.22,145.533 C 196.475,126.887 193.566,110.846 180.648,97.819 C 167.723,110.847 164.818,126.887 172.071,145.536 C 176.402,156.676 176.429,161.958 176.388,170.487 L 175.248,170.487 C 174.974,163.365 170.999,146.784 162.553,138.436 C 155.352,131.324 147.57,132.081 143.053,135.993 C 138.273,140.132 136.392,148.326 142.044,155.989 C 145.421,160.564 150.08,164.076 155.518,166.135 L 156.565,166.531 L 156.114,165.507 C 156.093,165.463 154.135,160.968 154.507,157.528 C 154.767,155.26 156.102,154.012 158.173,154.109 C 162.375,154.307 168.265,160.107 168.641,170.492 L 165.247,170.492 L 165.247,175.728 L 172.954,175.728 C 170.857,183.099 166.191,185.088 163.371,186.281 L 161.612,187.037 C 161.617,187.034 162.664,187.456 162.664,187.456 C 166.736,189.093 170.481,188.826 175.768,186.535 C 175.512,188.423 175.044,193.097 176.094,196.386 C 177.031,199.334 179.337,202.117 180.648,203.535 z "
   id="path11053_2_" />
				<rect
   width="28.917999"
   height="3.3570001"
   x="166.185"
   y="171.429"
   style="fill:#ffd700"
   id="rect11055_2_" /> 
				<path
   d="M 169.579,170.492 L 174.309,170.492 C 174.033,163.49 170.145,147.259 161.895,139.103 C 154.653,131.951 147.549,133.339 143.667,136.704 C 139.213,140.556 137.484,148.228 142.797,155.435 C 145.855,159.578 150.007,162.801 154.839,164.836 C 154.254,163.238 153.287,160.105 153.577,157.427 C 153.888,154.684 155.665,153.054 158.218,153.174 C 162.619,153.379 169.188,159.034 169.579,170.492 z "
   style="fill:#ffd700"
   id="path11057_2_" />
				<path
   d="M 183.965,170.492 C 183.922,161.855 183.949,156.499 188.345,145.193 C 195.319,127.26 192.699,111.802 180.648,99.185 C 168.591,111.802 165.969,127.262 172.943,145.193 C 177.341,156.499 177.368,161.85 177.325,170.492 L 183.965,170.492 z "
   style="fill:#ffd700"
   id="path11059_2_" />
				<path
   d="M 191.712,170.492 L 186.981,170.492 C 187.257,163.49 191.146,147.259 199.397,139.103 C 206.639,131.951 213.74,133.339 217.624,136.704 C 222.078,140.556 223.807,148.228 218.492,155.435 C 215.437,159.578 211.282,162.801 206.449,164.836 C 207.035,163.238 208.004,160.105 207.715,157.427 C 207.402,154.684 205.624,153.054 203.071,153.174 C 198.674,153.379 192.102,159.034 191.712,170.492 z "
   style="fill:#ffd700"
   id="path11061_2_" />
				<path
   d="M 187.358,175.726 C 189.443,183.396 194.109,185.675 197.148,186.974 C 193.536,188.117 190.137,187.642 185.129,185.348 L 184.322,184.978 L 184.472,185.855 C 184.482,185.917 185.542,192.202 184.302,196.102 C 183.573,198.395 181.906,200.636 180.646,202.112 C 179.382,200.636 177.714,198.395 176.985,196.102 C 175.744,192.202 176.805,185.917 176.814,185.855 L 176.968,184.978 L 176.157,185.348 C 171.151,187.642 167.752,188.114 164.139,186.974 C 167.177,185.675 171.845,183.396 173.931,175.726 L 187.358,175.726 z "
   style="fill:#ffd700"
   id="path11063_2_" />
			</g>
			<g
   id="_x32_">
				<path
   d="M 86.388,131.446 C 87.695,130.028 89.999,127.247 90.937,124.298 C 91.985,121.007 91.516,116.335 91.264,114.444 C 96.549,116.737 100.293,117.005 104.367,115.368 C 104.367,115.368 105.413,114.946 105.416,114.948 L 103.658,114.192 C 100.838,113.001 96.173,111.008 94.076,103.638 L 101.784,103.638 L 101.784,98.404 L 98.389,98.404 C 98.765,88.019 104.656,82.216 108.855,82.021 C 110.927,81.924 112.264,83.17 112.522,85.44 C 112.893,88.878 110.935,93.373 110.915,93.419 L 110.463,94.439 L 111.51,94.045 C 116.951,91.986 121.61,88.477 124.987,83.899 C 130.637,76.236 128.757,68.039 123.977,63.901 C 119.459,59.993 111.68,59.233 104.477,66.348 C 96.031,74.696 92.059,91.277 91.782,98.399 L 90.643,98.399 C 90.6,89.87 90.627,84.588 94.96,73.445 C 102.215,54.799 99.306,38.758 86.388,25.731 C 73.464,38.759 70.559,54.799 77.812,73.448 C 82.142,84.588 82.169,89.87 82.128,98.399 L 80.99,98.399 C 80.715,91.277 76.741,74.696 68.295,66.348 C 61.094,59.236 53.313,59.993 48.795,63.905 C 44.015,68.044 42.134,76.238 47.786,83.901 C 51.163,88.476 55.822,91.988 61.26,94.047 L 62.308,94.443 L 61.857,93.419 C 61.836,93.375 59.878,88.88 60.25,85.44 C 60.51,83.172 61.844,81.924 63.916,82.021 C 68.117,82.219 74.008,88.019 74.383,98.404 L 70.989,98.404 L 70.989,103.64 L 78.696,103.64 C 76.599,111.011 71.933,113.001 69.113,114.192 L 67.353,114.948 C 67.359,114.946 68.406,115.368 68.406,115.368 C 72.478,117.005 76.222,116.737 81.51,114.446 C 81.254,116.335 80.787,121.008 81.836,124.298 C 82.771,127.247 85.078,130.028 86.388,131.446 z "
   id="path11053_1_" />
				<rect
   width="28.919001"
   height="3.3570001"
   x="71.925003"
   y="99.341003"
   style="fill:#ffd700"
   id="rect11055_1_" /> 
				<path
   d="M 75.32,98.403 L 80.05,98.403 C 79.773,91.401 75.886,75.17 67.636,67.014 C 60.394,59.862 53.29,61.25 49.408,64.615 C 44.954,68.467 43.225,76.139 48.538,83.346 C 51.596,87.489 55.748,90.712 60.58,92.747 C 59.994,91.149 59.027,88.016 59.317,85.338 C 59.629,82.595 61.406,80.965 63.959,81.085 C 68.359,81.291 74.929,86.945 75.32,98.403 z "
   style="fill:#ffd700"
   id="path11057_1_" />
				<path
   d="M 89.706,98.403 C 89.663,89.766 89.69,84.41 94.086,73.104 C 101.06,55.171 98.44,39.713 86.389,27.096 C 74.332,39.713 71.71,55.173 78.685,73.104 C 83.082,84.41 83.11,89.761 83.067,98.403 L 89.706,98.403 L 89.706,98.403 z "
   style="fill:#ffd700"
   id="path11059_1_" />
				<path
   d="M 97.453,98.403 L 92.722,98.403 C 92.998,91.401 96.887,75.17 105.138,67.014 C 112.38,59.862 119.481,61.25 123.365,64.615 C 127.819,68.467 129.548,76.139 124.233,83.346 C 121.178,87.489 117.023,90.712 112.19,92.747 C 112.776,91.149 113.745,88.016 113.456,85.338 C 113.143,82.595 111.365,80.965 108.812,81.085 C 104.415,81.291 97.842,86.945 97.453,98.403 z "
   style="fill:#ffd700"
   id="path11061_1_" />
				<path
   d="M 93.099,103.638 C 95.184,111.307 99.85,113.587 102.889,114.886 C 99.277,116.029 95.878,115.554 90.87,113.261 L 90.063,112.89 L 90.213,113.767 C 90.223,113.829 91.283,120.115 90.043,124.015 C 89.314,126.308 87.647,128.548 86.387,130.025 C 85.123,128.548 83.455,126.308 82.727,124.015 C 81.485,120.115 82.547,113.829 82.555,113.767 L 82.709,112.89 L 81.9,113.26 C 76.894,115.553 73.496,116.026 69.882,114.885 C 72.92,113.586 77.587,111.307 79.674,103.637 L 93.099,103.637 L 93.099,103.638 z "
   style="fill:#ffd700"
   id="path11063_1_" />
			</g>
			<g
   id="_x31_">
				<path
   d="M 274.907,131.446 C 276.214,130.028 278.518,127.247 279.456,124.298 C 280.504,121.007 280.035,116.335 279.783,114.444 C 285.068,116.737 288.812,117.005 292.886,115.368 C 292.886,115.368 293.932,114.946 293.935,114.948 L 292.177,114.192 C 289.357,113.001 284.692,111.008 282.595,103.638 L 290.303,103.638 L 290.303,98.404 L 286.908,98.404 C 287.284,88.019 293.175,82.216 297.374,82.021 C 299.446,81.924 300.783,83.17 301.041,85.44 C 301.412,88.878 299.454,93.373 299.434,93.419 L 298.982,94.439 L 300.029,94.045 C 305.47,91.986 310.129,88.477 313.506,83.899 C 319.156,76.236 317.276,68.039 312.496,63.901 C 307.978,59.993 300.199,59.233 292.996,66.348 C 284.55,74.696 280.578,91.277 280.301,98.399 L 279.162,98.399 C 279.12,89.87 279.147,84.587 283.48,73.445 C 290.735,54.799 287.826,38.758 274.908,25.731 C 261.984,38.759 259.079,54.799 266.332,73.448 C 270.662,84.588 270.689,89.87 270.648,98.399 L 269.509,98.399 C 269.234,91.277 265.26,74.696 256.814,66.348 C 249.613,59.236 241.832,59.993 237.314,63.905 C 232.535,68.044 230.654,76.238 236.305,83.901 C 239.683,88.476 244.341,91.988 249.78,94.047 L 250.828,94.443 L 250.377,93.419 C 250.356,93.375 248.398,88.88 248.77,85.44 C 249.03,83.172 250.364,81.924 252.436,82.021 C 256.637,82.219 262.528,88.019 262.903,98.404 L 259.509,98.404 L 259.509,103.64 L 267.216,103.64 C 265.119,111.011 260.453,113.001 257.633,114.192 L 255.873,114.948 C 255.879,114.946 256.926,115.368 256.926,115.368 C 260.998,117.005 264.742,116.737 270.03,114.446 C 269.774,116.335 269.307,121.008 270.356,124.298 C 271.29,127.247 273.597,130.028 274.907,131.446 z "
   id="path11053_3_" />
				<rect
   width="28.919001"
   height="3.3570001"
   x="260.444"
   y="99.341003"
   style="fill:#ffd700"
   id="rect11055_3_" /> 
				<path
   d="M 263.839,98.403 L 268.569,98.403 C 268.292,91.401 264.405,75.17 256.155,67.014 C 248.913,59.862 241.809,61.25 237.927,64.615 C 233.473,68.467 231.744,76.139 237.057,83.346 C 240.116,87.489 244.268,90.712 249.1,92.747 C 248.514,91.149 247.547,88.016 247.837,85.338 C 248.149,82.595 249.926,80.965 252.479,81.085 C 256.878,81.291 263.448,86.945 263.839,98.403 z "
   style="fill:#ffd700"
   id="path11057_3_" />
				<path
   d="M 278.225,98.403 C 278.182,89.766 278.209,84.41 282.605,73.104 C 289.579,55.171 286.959,39.713 274.908,27.096 C 262.851,39.713 260.229,55.173 267.204,73.104 C 271.601,84.41 271.629,89.761 271.586,98.403 L 278.225,98.403 L 278.225,98.403 z "
   style="fill:#ffd700"
   id="path11059_3_" />
				<path
   d="M 285.972,98.403 L 281.241,98.403 C 281.517,91.401 285.406,75.17 293.657,67.014 C 300.899,59.862 308,61.25 311.884,64.615 C 316.338,68.467 318.067,76.139 312.752,83.346 C 309.697,87.489 305.542,90.712 300.709,92.747 C 301.295,91.149 302.264,88.016 301.975,85.338 C 301.662,82.595 299.884,80.965 297.331,81.085 C 292.934,81.291 286.361,86.945 285.972,98.403 z "
   style="fill:#ffd700"
   id="path11061_3_" />
				<path
   d="M 281.618,103.638 C 283.703,111.307 288.369,113.587 291.408,114.886 C 287.796,116.029 284.397,115.554 279.389,113.261 L 278.582,112.89 L 278.732,113.767 C 278.742,113.829 279.802,120.115 278.562,124.015 C 277.833,126.308 276.166,128.548 274.906,130.025 C 273.642,128.548 271.974,126.308 271.246,124.015 C 270.004,120.115 271.066,113.829 271.074,113.767 L 271.228,112.89 L 270.417,113.261 C 265.411,115.554 262.013,116.027 258.399,114.886 C 261.437,113.587 266.104,111.308 268.191,103.638 L 281.618,103.638 L 281.618,103.638 z "
   style="fill:#ffd700"
   id="path11063_3_" />
			</g>
		</g>
	</svg>
